X:1
T:Title
%%score { ( 1 3 ) | ( 2 4 ) }
L:1/8
M:4/2
K:Eb
V:1 treble nm="Grand Piano"
V:3 treble 
V:2 bass 
V:4 bass 
V:1
 z8 z4[Q:1/4=100] [EG]3 [FA] | [GB]3 [GB] [GB]3 [GB] [GB]3 G E3 F | G3 G G3 G G4 A3 B | %3
 c3 c c3 c c3 [ce] [Bd]3 c | B3 B A3 G [DF]4 [EG]3 [FA] | [GB]3 [GB] [GB]3 [GB] [GB]3 G A3 B | %6
 c3 c c3 c c4 c3 [Bd] | [ce]3 [ce] [Bd]3 c B e3 E3 F | G3 [EB] [DF]3 [DB] E8 | %9
 [Ge]4 [Ge]4 [Ge]3 [Gd] [Gc]3 [GB] | [Ad]4[K:bass][K:treble] z4 z8 | [Ad]4 [Ac]4 [GB]4 [FA]4 | %12
[M:6/4] G12 |[M:2/4] [GB]3 [GB] |[M:8/4] [Ge]4 [Ge]4 [Ge]6 [GB]2 | d4 c8 z4 | B4 G4 [EF]4 [DB]4 | %17
[M:6/4] E12 |] %18
V:2
 z8 z4 [E,B,]3 [E,B,] | [E,E]3 [E,E] [E,E]3 [E,E] [E,E]3 [E,B,E] [G,B,]3 [B,D] | %2
 [E,B,E]3 [E,B,E] [E,B,E]3 [E,B,E] [E,B,E]4 [F,B,D]3[K:treble] [G,E] | %3
 [A,EA]3 [A,EA] [A,EA]3 [A,EA] [A,EA]3 [A,E] [A,E]3 [A,EA] | %4
 [G,E]3 [G,E] [F,B,D]3 [E,B,E] [B,,B,]4 [E,B,]3 [E,B,] | %5
 [E,E]3 [E,E] [E,E]3 [E,E] [E,E]3 [E,B,E] [F,B,D]3[K:treble] [G,E] | %6
 [A,EA]3 [A,EA] [A,EA]3 [A,EA] [A,EA]4 [A,EA]3 [A,E] | %7
 [A,E]3 [A,E] [A,E]3 [A,EA][K:bass] [G,E] [G,B,E]3 [A,C]3 [A,CE] | %8
 [B,E]3 [B,,G,] [B,,A,]3 [B,,A,] [E,G,]8 | [E,B,]4 [E,B,]4 [E,B,]3 [E,B,] [E,E]3 [E,E] | %10
 [F,B,]4 B,3- [F,B,] B,4 B,3 B, | [B,,B,]4 [B,,B,]4 [B,,B,]4 [B,,B,]4 | %12
[M:6/4] [E,B,E]3 [E,B,] [E,B,]2- [E,B,][E,B,] [E,B,]4 |[M:2/4] [E,E]3 [E,E] | %14
[M:8/4] [E,B,]4 [E,B,]4 [E,B,]6 [E,E]2 | [A,EA]3 [A,E] [A,EA]3 [A,E] [A,E]4 [A,CE]3 [A,CE] | %16
 [B,EG]4[K:bass] [B,E]4 [B,,A,]4 [B,,A,]4 |[M:6/4] [E,G,]12 |] %18
V:3
 x16 | x16 | x16 | x16 | x16 | x16 | x16 | x16 | x16 | x16 | %10
 z2 z[K:bass] B,,[K:treble] [Ad]8 [DA]3 [DA] | x16 |[M:6/4] z2 z E E2- EE E4 |[M:2/4] x4 | %14
[M:8/4] x16 | z2 z A z2 z A A4 d3 e | x16 |[M:6/4] x12 |] %18
V:4
 x16 | x16 | x15[K:treble] x | x16 | x16 | x15[K:treble] x | x16 | x8[K:bass] x8 | x16 | x16 | %10
 z4 D,4 z8 | x16 |[M:6/4] x12 |[M:2/4] x4 |[M:8/4] x16 | x16 | x4[K:bass] x12 |[M:6/4] x12 |] %18

